public/img/quarter-icon-1.svg

<svg width="55" height="55" viewBox="0 0 55 55" fill="none" xmlns="http://www.w3.org/2000/svg">
<path d="M53.3315 45.6023L53.3061 45.5769L53.3357 45.5389L52.5797 44.9054L47.3255 40.0229L47.0805 40.2636C47.0383 40.3168 46.9932 40.3675 46.9454 40.4157C45.7459 41.5392 41.9024 44.7787 37.3874 44.8378C37.2902 44.8378 37.1973 44.8378 37.1001 44.8378C34.7222 44.5802 32.4119 43.3046 30.0636 40.9436C26.1652 37.0241 21.8318 34.9039 17.169 34.6082C17.038 34.6082 16.9071 34.6082 16.7804 34.6082C16.0785 34.5426 15.373 34.5228 14.6686 34.5491C7.64049 34.8405 2.42011 39.5499 0.646198 41.366C0.278745 41.7166 0.0464638 41.9573 0.00422773 42.008L0.0295683 42.0333L0 42.0671L0.726448 42.6922L5.98484 47.5747C5.98484 47.5747 6.07777 47.4776 6.22982 47.334L6.36498 47.1819C7.56448 46.0627 11.408 42.8232 15.9188 42.7598C16.0159 42.7598 16.1131 42.7598 16.2102 42.7598C18.5839 43.0174 20.8984 44.2887 23.2467 46.6497C27.1451 50.5692 31.4785 52.6937 36.1414 52.9851C36.2723 52.9851 36.4032 52.9851 36.53 52.9851C37.2321 53.0473 37.9374 53.0657 38.6418 53.0401C45.6656 52.7528 50.8902 48.0435 52.6641 46.2274C53.0316 45.8768 53.2639 45.6318 53.3061 45.5854" fill="#FFD100"/>
<path d="M35.5791 1.27554C44.7781 1.27554 52.5538 8.76399 52.5538 17.6293C52.5538 22.6216 50.0703 28.6107 46.2184 32.8343L46.1086 32.9568L45.9481 32.9272C45.4261 32.8215 44.9649 32.519 44.6599 32.0825C44.3302 32.4005 43.9162 32.6173 43.467 32.7071C43.0179 32.7969 42.5524 32.7561 42.1257 32.5893C41.7498 33.3116 41.6062 34.0929 42.6114 34.3802C43.5491 34.6462 44.8119 34.2999 45.7453 34.1605C47.8728 33.9296 50.0136 33.8464 52.1525 33.9113C52.8959 33.9409 52.8959 35.0897 52.1525 35.0644C49.7056 35.0228 47.2587 35.1484 44.8288 35.4403C43.8954 35.5754 42.717 35.7613 41.8005 35.3262C40.2546 34.5702 40.5334 33.2862 41.1332 32.0952C40.6686 31.808 40.166 31.449 39.6253 31.0604C41.1332 30.4015 43.0929 27.4534 44.436 24.877C45.3863 23.0567 47.2447 19.2005 47.0378 17.2492C48.195 18.0432 49.1031 18.7401 49.5719 19.6482C49.7085 18.8103 49.7791 17.963 49.7831 17.1141C49.7831 10.0902 42.4256 5.37243 35.558 5.37243C27.0517 5.37243 21.3329 11.4418 21.3329 17.1141C21.3338 17.9456 21.3987 18.7759 21.5272 19.5975C22.0213 18.7021 22.9125 18.0137 24.0613 17.2323C24.0358 17.5138 24.0429 17.7972 24.0825 18.077C24.0825 17.6969 24.1543 17.4139 24.3401 17.2957C24.358 17.2825 24.378 17.2725 24.3993 17.2661C24.4594 17.2353 24.526 17.2194 24.5935 17.2196C25.5903 17.2196 27.7697 19.6736 29.5647 23.1074C31.3597 26.5411 32.2974 29.7891 31.799 30.7098C31.765 30.7826 31.7126 30.8452 31.6469 30.8915C31.5842 30.9257 31.5153 30.9472 31.4442 30.9548H31.402H31.364C31.402 30.9548 31.44 31.0055 31.478 31.0224C29.4169 32.5049 28.0315 33.5566 26.1985 31.8375C25.9156 32.2243 25.5412 32.5349 25.1088 32.7414L24.9145 32.8174L24.7794 32.6654C21.0204 28.4418 18.5918 22.5287 18.5918 17.6167C18.5918 8.74709 26.3632 1.26709 35.5622 1.26709" fill="#FFD100"/>
<path d="M46.3992 16.8987C46.4664 16.8971 46.533 16.9116 46.5935 16.9409L46.6568 16.9705C47.5015 17.5153 46.3654 21.0167 44.3761 24.8391C42.5599 28.332 40.4861 30.8661 39.5062 30.8661H39.4513C39.3809 30.8619 39.3127 30.8401 39.2528 30.8028C39.186 30.7549 39.1322 30.691 39.0966 30.6169C38.5939 29.6793 39.5189 26.3933 41.3646 22.9089C43.2103 19.4244 45.3982 16.9409 46.4076 16.9409" fill="#FFD100"/>
</svg>

<svg width="55" height="55" fill="none" xmlns="http://www.w3.org/2000/svg"><path d="M53.331 45.602l-.025-.025.03-.038-.756-.634-5.255-4.882-.245.24a1.839 1.839 0 01-.135.153c-1.2 1.123-5.043 4.363-9.558 4.422H37.1c-2.378-.258-4.688-1.533-7.036-3.894-3.899-3.92-8.232-6.04-12.895-6.336h-.389a16.2 16.2 0 00-2.111-.059c-7.029.291-12.249 5-14.023 6.817-.367.35-.6.591-.642.642l.026.025-.03.034.726.625 5.259 4.883s.093-.097.245-.241l.135-.152c1.2-1.12 5.043-4.359 9.554-4.422h.291c2.374.257 4.688 1.529 7.037 3.89 3.898 3.92 8.232 6.044 12.894 6.335h.389c.702.062 1.407.08 2.112.055 7.024-.287 12.248-4.996 14.022-6.813.368-.35.6-.595.642-.642M35.58 1.276c9.198 0 16.974 7.488 16.974 16.353 0 4.993-2.484 10.982-6.336 15.205l-.11.123-.16-.03a2.074 2.074 0 01-1.288-.844 2.395 2.395 0 01-2.534.506c-.376.723-.52 1.504.485 1.791.938.266 2.2-.08 3.134-.22a46.352 46.352 0 016.408-.249c.743.03.743 1.179 0 1.153a53.744 53.744 0 00-7.324.376c-.934.135-2.112.321-3.029-.114-1.545-.756-1.267-2.04-.667-3.23a27.436 27.436 0 01-1.508-1.036c1.508-.659 3.468-3.607 4.811-6.183.95-1.82 2.809-5.676 2.602-7.628 1.157.794 2.065 1.491 2.534 2.4.136-.839.207-1.686.211-2.535 0-7.024-7.357-11.742-14.225-11.742-8.506 0-14.225 6.07-14.225 11.742 0 .832.066 1.662.194 2.483.494-.895 1.386-1.583 2.534-2.365-.025.282-.018.565.021.845 0-.38.072-.663.258-.781a.193.193 0 01.06-.03.423.423 0 01.194-.046c.996 0 3.176 2.454 4.97 5.887 1.796 3.434 2.733 6.682 2.235 7.603a.46.46 0 01-.152.181.544.544 0 01-.203.064h-.08c.038 0 .076.05.114.067-2.061 1.483-3.447 2.535-5.28.816a2.897 2.897 0 01-1.09.903l-.194.076-.135-.152c-3.759-4.223-6.187-10.136-6.187-15.048 0-8.87 7.771-16.35 16.97-16.35" fill="#FFD100"/><path d="M46.4 16.899a.423.423 0 01.194.042l.063.03c.845.544-.292 4.046-2.28 7.868-1.817 3.493-3.89 6.027-4.87 6.027h-.056a.423.423 0 01-.198-.063.49.49 0 01-.156-.186c-.503-.938.422-4.224 2.268-7.708 1.845-3.485 4.033-5.968 5.043-5.968" fill="#FFD100"/></svg>
